packages/admin/admin-icons/icons/arrow-down.svg

<svg xmlns="http://www.w3.org/2000/svg" width="16" height="16" viewBox="0 0 16 16"><path fill="#242424" fill-rule="evenodd" d="M6.35405458,13.8530522 C6.18048823,14.0266186 5.91106383,14.0459037 5.71619569,13.9109077 L5.6469478,13.8530522 L2.6469478,10.8530522 C2.45168565,10.6577901 2.45168565,10.3412076 2.6469478,10.1459454 C2.82051415,9.97237907 3.08993855,9.95309392 3.28480669,10.08809 L3.35405458,10.1459454 L6.35405458,13.1459454 C6.54931673,13.3412076 6.54931673,13.6577901 6.35405458,13.8530522 Z M13.41191,10.7838043 L13.3540546,10.8530522 L8.35405458,15.8530522 C8.06007098,16.1470358 7.57131692,15.9723043 7.50745631,15.5855308 L7.50050119,15.4994988 L7.50050119,0.499498811 C7.50050119,0.223356436 7.72435881,-0.000501188638 8.00050119,-0.000501188638 C8.24596108,-0.000501188638 8.45010956,0.176373972 8.49244552,0.409623179 L8.50050119,0.499498811 L8.50050119,14.2924988 L12.6469478,10.1459454 C12.8205141,9.97237907 13.0899386,9.95309392 13.2848067,10.08809 L13.3540546,10.1459454 C13.5276209,10.3195118 13.5469061,10.5889362 13.41191,10.7838043 Z"/></svg>

<svg width="16" height="16" fill="none" viewBox="0 0 16 16">
  <path fill="#242424" fill-rule="evenodd" d="M6.354 13.853a.5.5 0 0 1-.638.058l-.07-.058-3-3a.5.5 0 0 1 .638-.765l.07.058 3 3a.5.5 0 0 1 0 .707Zm7.057-3.07-.057.07-5 5a.5.5 0 0 1-.847-.268L7.5 15.5V.5a.5.5 0 0 1 .992-.09L8.5.5v13.794l4.146-4.147a.5.5 0 0 1 .638-.058l.07.058a.5.5 0 0 1 .057.638Z" clip-rule="evenodd"/>
</svg>
